images/ICONOS/CEGID/TALENTO ICON.svg

<svg width="60" height="42" viewBox="0 0 60 42" fill="none" xmlns="http://www.w3.org/2000/svg">
<path d="M0 24.7098C0.375031 24.5045 0.731311 24.1862 1.12978 24.1145C2.85805 23.8057 4.59726 23.5574 6.33647 23.3187C6.699 23.2693 6.87245 23.1038 7.0209 22.7918C7.77721 21.2016 8.55853 19.6226 9.3164 18.0341C9.52736 17.5932 9.793 17.2446 10.3118 17.2446C10.8306 17.2446 11.0962 17.5932 11.3072 18.0357C12.0666 19.6242 12.8479 21.2032 13.6043 22.7934C13.7527 23.1054 13.9246 23.2629 14.2887 23.3123C16.0482 23.5495 17.7999 23.8392 19.5563 24.0891C20.0407 24.1575 20.433 24.3151 20.5845 24.8244C20.7299 25.3163 20.458 25.6537 20.1361 25.9705C18.8734 27.2152 17.6046 28.4536 16.3686 29.7254C16.1873 29.9116 16.0607 30.2841 16.0982 30.5404C16.3545 32.2483 16.6623 33.9483 16.953 35.6499C16.9702 35.747 16.9811 35.8472 16.9967 35.9443C17.0639 36.3805 17.0295 36.7848 16.6373 37.0633C16.2482 37.3403 15.8716 37.2448 15.4841 37.0347C13.9168 36.1879 12.3401 35.3602 10.7775 34.5038C10.454 34.3271 10.204 34.3096 9.86801 34.4943C8.3257 35.3458 6.76463 36.1608 5.2145 36.9981C4.81603 37.213 4.42849 37.3642 4.00658 37.0761C3.55811 36.7705 3.56123 36.32 3.64093 35.8488C3.93158 34.1266 4.20973 32.4011 4.52225 30.682C4.60038 30.2507 4.54725 29.9514 4.21285 29.6331C3.08463 28.5618 1.99079 27.454 0.889137 26.3557C0.585986 26.0533 0.2969 25.7333 0.00156263 25.4213C0 25.1874 0 24.9486 0 24.7098ZM3.23308 25.7126C4.16597 26.7361 5.10511 27.7978 6.08176 28.8229C6.47398 29.2352 6.61149 29.6426 6.50367 30.2157C6.23802 31.6148 6.02707 33.0235 5.77548 34.5404C6.79901 33.9945 7.72096 33.4899 8.65385 33.0092C10.6181 31.9952 9.99146 31.9666 11.9901 33.0092C12.9183 33.4931 13.8371 33.9913 14.8591 34.5357C14.6747 33.4405 14.4934 32.468 14.3496 31.4907C13.9902 29.0473 13.6855 29.7461 15.4544 27.9474C16.1529 27.2375 16.8045 26.4798 17.4765 25.7445C17.3921 25.727 17.2452 25.6903 17.0967 25.6665C15.8435 25.4755 14.5918 25.2669 13.3339 25.1094C12.7808 25.0393 12.462 24.7592 12.2323 24.2705C11.6947 23.1245 11.1322 21.9895 10.5774 20.8515C10.5056 20.705 10.4134 20.5665 10.293 20.3596C9.65549 21.6712 9.03669 22.8857 8.47258 24.1257C8.20068 24.7257 7.84128 25.0966 7.16622 25.1316C6.73962 25.1539 6.31615 25.2526 5.89268 25.3163C4.95354 25.4532 4.01596 25.5948 3.23308 25.7126Z" fill="#2AB981"/>
<path d="M42.9786 36.1035C43.2286 34.6089 43.4396 32.9901 43.7896 31.4015C44.0005 30.4481 43.8537 29.7891 43.0973 29.1317C41.9566 28.14 40.9284 27.0131 39.8455 25.9498C39.5189 25.6283 39.2673 25.286 39.4252 24.7974C39.5892 24.2896 39.9924 24.1591 40.4737 24.0906C42.2317 23.8439 43.9849 23.5542 45.7444 23.3155C46.0898 23.2677 46.2476 23.1117 46.3867 22.8204C47.1446 21.2303 47.9212 19.6497 48.6791 18.0595C48.8869 17.6234 49.14 17.2573 49.6604 17.2462C50.2104 17.2334 50.4792 17.6075 50.698 18.0659C51.4574 19.6561 52.2356 21.2351 52.9935 22.8268C53.1341 23.1213 53.2966 23.2645 53.6404 23.3107C55.4187 23.551 57.1923 23.8407 58.969 24.0954C59.4331 24.1623 59.8003 24.3262 59.9534 24.8053C60.1003 25.2669 59.88 25.6076 59.5675 25.9148C58.2908 27.1754 57.0282 28.4488 55.739 29.6936C55.4609 29.9626 55.3937 30.222 55.4577 30.5865C55.7609 32.2881 56.0469 33.9913 56.3375 35.6944C56.3578 35.8122 56.4063 35.9428 56.375 36.0478C56.275 36.39 56.2344 36.866 56.0015 37.0204C55.7406 37.1923 55.2296 37.197 54.9358 37.0506C53.3263 36.2452 51.7418 35.3841 50.1651 34.5118C49.8104 34.316 49.5432 34.3351 49.2025 34.5213C47.6227 35.3872 46.0335 36.2388 44.4396 37.0761C43.6724 37.4772 42.9598 37.0458 42.9786 36.1035ZM49.7073 20.3405C49.5666 20.6 49.4682 20.7623 49.3854 20.9326C48.84 22.0532 48.2868 23.169 47.7587 24.2976C47.5383 24.7687 47.2274 25.0425 46.6976 25.0998C45.9226 25.1842 45.1538 25.3195 44.3818 25.4373C43.7411 25.5359 43.1005 25.6394 42.6286 25.7142C43.5583 26.7393 44.4959 27.8026 45.4679 28.8324C45.8398 29.2272 46.0288 29.6251 45.882 30.1679C45.8148 30.4162 45.7882 30.6741 45.746 30.9288C45.5538 32.0971 45.3616 33.2639 45.1538 34.5357C46.4586 33.8417 47.6759 33.2225 48.8635 32.5476C49.4323 32.2229 49.9214 32.1815 50.4995 32.5285C51.3215 33.0219 52.184 33.4421 53.031 33.8926C53.3982 34.0868 53.7701 34.2762 54.2311 34.515C53.9748 32.9837 53.7592 31.5734 53.4951 30.1727C53.3904 29.6204 53.5295 29.2176 53.9201 28.8404C54.7999 27.9952 55.6531 27.1197 56.5328 26.2745C56.6797 26.1329 56.9079 26.0787 57.0985 25.9832C57.0313 25.8957 56.9657 25.8097 56.8985 25.7222C55.6687 25.5407 54.442 25.3179 53.2076 25.1937C52.3481 25.1078 51.784 24.7878 51.4309 23.9299C50.9386 22.7361 50.3167 21.5932 49.7073 20.3405Z" fill="#2AB981"/>
<path d="M23.2894 40.8787C23.5395 39.3841 23.7504 37.7653 24.1004 36.1767C24.3114 35.2233 24.1661 34.5643 23.4082 33.9069C22.2659 32.9153 21.2393 31.7883 20.1564 30.725C19.8298 30.4035 19.5782 30.0613 19.736 29.5726C19.9001 29.0648 20.3033 28.9327 20.783 28.8659C22.5409 28.6191 24.2942 28.3295 26.0537 28.0907C26.3991 28.0429 26.5569 27.8869 26.696 27.5957C27.4539 26.0055 28.2305 24.4249 28.9884 22.8348C29.1962 22.3986 29.4493 22.0325 29.9697 22.0198C30.5197 22.0071 30.7885 22.3811 31.0073 22.8395C31.7667 24.4297 32.5449 26.0087 33.3028 27.6004C33.4434 27.8949 33.6059 28.0382 33.9497 28.0843C35.728 28.3247 37.5016 28.6144 39.2783 28.8691C39.7424 28.9359 40.1096 29.0999 40.2627 29.5774C40.4096 30.039 40.1893 30.3796 39.8768 30.6868C38.6001 31.9475 37.3375 33.2209 36.0483 34.4656C35.7702 34.7346 35.703 34.9941 35.767 35.3586C36.0702 37.0602 36.3562 38.7633 36.6468 40.4665C36.6671 40.5843 36.7156 40.7148 36.6843 40.8198C36.5843 41.1621 36.5452 41.638 36.3108 41.7924C36.0499 41.9643 35.5389 41.9691 35.2451 41.8226C33.6356 41.0172 32.0511 40.1561 30.4744 39.2838C30.1213 39.088 29.8525 39.1055 29.5118 39.2934C27.932 40.1593 26.3428 41.0093 24.7489 41.8481C23.9833 42.2524 23.2707 41.8226 23.2894 40.8787ZM34.5435 39.3045C34.2872 37.7733 34.0653 36.3502 33.8044 34.9336C33.7075 34.4083 33.8263 34.012 34.2013 33.6475C35.1217 32.7577 36.0249 31.8504 36.9328 30.9479C37.0468 30.8349 37.1422 30.7027 37.2515 30.5722C37.1609 30.5197 37.1297 30.4879 37.0953 30.4815C36.1686 30.343 35.2404 30.222 34.3169 30.0692C31.9417 29.6761 32.4762 30.1249 31.3948 27.9363C30.9448 27.0242 30.501 26.109 30.0009 25.0855C29.4103 26.3016 28.8196 27.3744 28.3649 28.5045C27.9773 29.466 27.3867 29.9164 26.36 29.9912C25.1646 30.0772 23.9801 30.3255 22.7894 30.5038C22.7347 30.5802 22.68 30.6566 22.6269 30.733C22.8113 30.8396 23.0269 30.9113 23.1769 31.0561C24.0551 31.9029 24.9099 32.7752 25.7897 33.622C26.1834 34.0008 26.3413 34.4195 26.1928 34.9606C26.1303 35.1883 26.1084 35.4286 26.0694 35.6642C25.874 36.8453 25.6787 38.0279 25.4662 39.3157C26.8007 38.6026 28.0336 37.9706 29.2415 37.2894C29.7775 36.9869 30.2369 36.9837 30.7744 37.2862C31.9808 37.9643 33.2137 38.5978 34.5435 39.3045Z" fill="#2AB981"/>
<path d="M36.5624 7.05742C36.7187 11.0288 34.1044 13.5103 31.5167 14.1407C27.6132 15.0909 23.6754 12.1446 23.4504 8.06022C23.3488 6.19629 23.5285 4.40717 24.6411 2.82657C26.3084 0.458064 29.2431 -0.559059 31.9542 0.303665C34.6482 1.16161 36.4921 3.66383 36.5609 6.55443C36.5656 6.75499 36.5624 6.95396 36.5624 7.05742ZM34.6873 7.1975C34.6873 6.99853 34.692 6.79956 34.6873 6.60059C34.6294 4.19866 32.9106 2.26151 30.5494 1.93679C28.3289 1.63118 26.0897 3.11468 25.5224 5.38928C25.3146 6.21858 25.2974 7.12587 25.3427 7.98859C25.4896 10.7932 28.1195 12.845 30.826 12.3277C33.2371 11.8661 34.6904 9.93847 34.6873 7.1975Z" fill="#2AB981"/>
<path d="M17.9031 22.8841C17.9031 21.6346 17.7655 20.3883 17.9327 19.1881C18.25 16.9214 20.1876 15.2963 22.4425 15.2883C27.4804 15.2676 32.5183 15.2644 37.5563 15.2883C40.0987 15.3011 42.1238 17.3703 42.1816 19.9505C42.2035 20.9199 42.1848 21.8893 42.1848 22.8889C41.5566 22.8889 40.9784 22.8889 40.3112 22.8889C40.3112 21.9498 40.3221 21.0043 40.3081 20.0588C40.2862 18.6342 39.3533 17.4992 37.9922 17.2382C37.7453 17.1904 37.4875 17.192 37.2344 17.192C32.4105 17.1889 27.5882 17.1889 22.7644 17.1904C20.8267 17.1904 19.6876 18.3636 19.6845 20.3548C19.6829 21.1857 19.6845 22.0182 19.6845 22.8841C19.0688 22.8841 18.489 22.8841 17.9031 22.8841Z" fill="#2AB981"/>
</svg>

<svg width="60" height="42" fill="none" xmlns="http://www.w3.org/2000/svg"><path d="M0 24.71c.375-.206.731-.524 1.13-.596 1.728-.308 3.467-.557 5.206-.795.363-.05.536-.215.685-.527.756-1.59 1.538-3.17 2.295-4.758.211-.44.477-.79.996-.79s.784.35.995.792c.76 1.588 1.54 3.167 2.297 4.757.149.312.32.47.685.52 1.76.236 3.51.526 5.267.776.485.069.877.226 1.028.735.146.492-.126.83-.448 1.146-1.263 1.245-2.531 2.484-3.767 3.755-.182.187-.308.56-.27.815.256 1.708.563 3.408.854 5.11.017.097.028.197.044.294.067.436.032.84-.36 1.12-.389.276-.765.18-1.153-.03-1.567-.846-3.144-1.674-4.707-2.53-.323-.177-.573-.194-.909-.01-1.542.852-3.103 1.667-4.654 2.504-.398.215-.786.366-1.207.078-.449-.306-.446-.756-.366-1.227.29-1.722.569-3.448.881-5.167.078-.431.025-.73-.31-1.049-1.127-1.071-2.221-2.179-3.323-3.277-.303-.303-.592-.623-.887-.935C0 25.187 0 24.95 0 24.71Zm3.233 1.003c.933 1.023 1.872 2.085 2.849 3.11.392.412.53.82.422 1.393-.266 1.399-.477 2.807-.729 4.324 1.024-.545 1.946-1.05 2.879-1.53 1.964-1.015 1.337-1.043 3.336 0 .928.483 1.847.981 2.87 1.526-.185-1.096-.367-2.068-.51-3.045-.36-2.444-.665-1.745 1.104-3.544.699-.71 1.35-1.467 2.023-2.203-.085-.017-.232-.054-.38-.078-1.254-.19-2.505-.4-3.763-.557-.553-.07-.872-.35-1.102-.839-.537-1.145-1.1-2.28-1.655-3.418-.071-.147-.164-.285-.284-.492-.638 1.311-1.256 2.526-1.82 3.766-.272.6-.632.97-1.307 1.006-.426.022-.85.12-1.273.184-.94.137-1.877.279-2.66.397ZM42.979 36.103c.25-1.494.46-3.113.81-4.702.212-.953.065-1.612-.692-2.27-1.14-.991-2.169-2.118-3.252-3.181-.326-.322-.578-.664-.42-1.153.164-.507.567-.638 1.049-.706 1.758-.247 3.51-.537 5.27-.776.346-.047.504-.203.643-.495.758-1.59 1.534-3.17 2.292-4.76.208-.437.461-.803.981-.814.55-.013.82.362 1.038.82.76 1.59 1.538 3.17 2.295 4.76.141.295.304.439.647.485 1.779.24 3.552.53 5.329.784.464.067.831.231.984.71.147.462-.073.803-.386 1.11-1.276 1.26-2.539 2.534-3.828 3.779-.278.269-.345.528-.281.893.303 1.701.589 3.404.88 5.107.02.118.068.249.037.354-.1.342-.14.818-.373.972-.261.172-.772.177-1.066.03a130.743 130.743 0 0 1-4.77-2.538c-.356-.196-.623-.177-.963.01a305.56 305.56 0 0 1-4.763 2.554c-.768.401-1.48-.03-1.461-.973Zm6.728-15.763c-.14.26-.239.422-.322.593-.545 1.12-1.098 2.236-1.626 3.365-.22.47-.532.745-1.061.802-.775.084-1.544.22-2.316.337-.64.099-1.282.202-1.753.277.93 1.025 1.867 2.089 2.839 3.118.372.395.56.793.414 1.336-.067.248-.094.506-.136.76l-.592 3.608c1.305-.694 2.522-1.314 3.71-1.988.568-.325 1.057-.367 1.636-.02.822.494 1.684.914 2.531 1.365.367.194.74.383 1.2.622-.256-1.531-.472-2.942-.736-4.342-.105-.553.035-.955.425-1.333.88-.845 1.733-1.72 2.613-2.566.147-.141.375-.195.566-.29l-.2-.262c-1.23-.181-2.457-.404-3.691-.528-.86-.086-1.424-.406-1.777-1.264-.492-1.194-1.114-2.337-1.724-3.59ZM23.29 40.879c.25-1.495.46-3.114.81-4.702.211-.954.066-1.613-.692-2.27-1.142-.992-2.169-2.119-3.252-3.182-.326-.322-.578-.664-.42-1.152.164-.508.567-.64 1.047-.707 1.758-.247 3.511-.537 5.27-.775.346-.048.504-.204.643-.495.758-1.59 1.534-3.171 2.292-4.761.208-.436.461-.803.982-.815.55-.013.819.361 1.037.82.76 1.59 1.538 3.169 2.296 4.76.14.295.303.438.647.484 1.778.24 3.552.53 5.328.785.464.067.832.23.985.708.147.462-.074.803-.386 1.11-1.277 1.26-2.54 2.534-3.829 3.779-.278.269-.345.528-.281.893.303 1.701.59 3.404.88 5.108.02.117.069.248.037.353-.1.342-.139.818-.373.972-.261.172-.772.177-1.066.03a130.743 130.743 0 0 1-4.77-2.538c-.354-.196-.623-.178-.963.01-1.58.865-3.17 1.715-4.763 2.554-.766.404-1.478-.025-1.46-.97Zm11.254-1.575c-.257-1.53-.479-2.954-.74-4.37-.096-.526.022-.922.397-1.286.92-.89 1.824-1.798 2.732-2.7.114-.113.21-.245.319-.376-.091-.052-.122-.084-.157-.09-.926-.139-1.855-.26-2.778-.413-2.375-.393-1.84.056-2.922-2.133-.45-.912-.894-1.827-1.394-2.85-.59 1.216-1.181 2.288-1.636 3.419-.388.961-.978 1.411-2.005 1.486-1.195.086-2.38.335-3.57.513l-.163.229c.184.107.4.178.55.323.878.847 1.733 1.72 2.613 2.566.393.379.551.797.403 1.339-.063.227-.085.468-.124.703l-.603 3.652c1.335-.713 2.568-1.345 3.775-2.027.537-.302.996-.305 1.533-.003 1.207.678 2.44 1.312 3.77 2.018ZM36.562 7.057c.157 3.972-2.458 6.453-5.045 7.084-3.904.95-7.842-1.996-8.067-6.08-.101-1.865.079-3.654 1.191-5.234C26.308.458 29.243-.56 31.954.304c2.694.858 4.538 3.36 4.607 6.25.005.201.001.4.001.503Zm-1.875.14c0-.198.005-.397 0-.596-.058-2.402-1.776-4.34-4.138-4.664-2.22-.306-4.46 1.178-5.027 3.452-.207.83-.225 1.737-.18 2.6.148 2.804 2.777 4.856 5.484 4.339 2.411-.462 3.864-2.39 3.861-5.13Z" fill="#2AB981"/><path d="M17.903 22.884c0-1.25-.137-2.496.03-3.696.317-2.267 2.255-3.892 4.51-3.9 5.037-.02 10.075-.024 15.113 0 2.543.013 4.568 2.082 4.626 4.663.021.969.003 1.938.003 2.938H40.31c0-.94.011-1.885-.003-2.83-.022-1.425-.955-2.56-2.316-2.82-.247-.049-.505-.047-.758-.047-4.824-.003-9.646-.003-14.47-.002-1.937 0-3.076 1.174-3.08 3.165v2.53h-1.78Z" fill="#2AB981"/></svg>
